X: 2035
T: CORRIMONY
Q: "Strathspey."
R: strathspey
B: Kerr's v.2 p.7 #35
Z: 2016 John Chambers <jc:trillian.mit.edu>
M: C
L: 1/8
K: A
F |\
E<CC>E A,>EC<F | E<CC>E F>E(C<F) |\
E<CC>E A,>EC>c | A<F E>C B,3 ::\
f |\
e<ca>c b>ca>f |
e<ca>g f>ec>f |\
[1 e<ca>c b>ca>g | b/a/g/f/ a>c B3 :|\
[2 e>cd>B c>A B<G | A<F E>C B,3 |]
